X:472
T:Good Night, Irene
C:Huddie Ledbetter
M:3/4
L:1/8
K:G
D2 | G2 G2 G2 | A2 G2 D2 | F2 A4- | A4 d2 | 
d2 d2 d2 | A4 BA | G6- | G4 d2 | 
d2 B2 B2 | A4 G2 | E2 G4- | G2 z E EE | 
D3 A AA | B4 A2 | G6- | G6 || 
G6 | A4 G2 | F4 E2 | D6 | 
A6 | B4 A2 | G6- | G4 GA | 
B4 B2 | A4 G2 | A4 G2 | E4 E2 | 
D4 A2 | B4 A2 | G6- | G2 z2 | 

